svgs/sharp-solid/square-n.svg

<svg xmlns="http://www.w3.org/2000/svg" viewBox="0 0 448 512"><!--! Font Awesome Pro 6.6.0 by @fontawesome - https://fontawesome.com License - https://fontawesome.com/license (Commercial License) Copyright 2024 Fonticons, Inc. --><path d="M448 32L0 32 0 480l448 0 0-448zM288 128l48 0 0 24 0 208 0 24-35.1 0-7.2-8.5L160 217.5 160 360l0 24-48 0 0-24 0-208 0-24 35.1 0 7.2 8.5L288 294.5 288 152l0-24z"/></svg>

<svg xmlns="http://www.w3.org/2000/svg" viewBox="0 0 448 512"><!--! Font Awesome Pro 6.4.2 by @fontawesome - https://fontawesome.com License - https://fontawesome.com/license (Commercial License) Copyright 2023 Fonticons, Inc. --><path d="M448 32H0V480H448V32zM288 128h48v24V360v24H300.9l-7.2-8.5L160 217.5V360v24H112V360 152 128h35.1l7.2 8.5L288 294.5V152 128z"/></svg>
